X:33
T:Life Is All Checquered     Jig         Allan's   #33
C:Trad/Anon.
B:Allan's Irish Fiddler (pub. Mozart Allen,  Glascow) date unknown
Z:FROM ALLAN'S TO NOTEWORTHY, FROM NOTEWORTHY TO ABC, MIDI AND .TXT BY VINCE
BRENNAN Dec. 2002 (HTTP://WWW.SOSYOURMOM.COM)
I:abc2nwc
M:6/8
L:1/8
K:G
g|dBB BAB|dBB B2g|dBB BAB|GEE E2g|
dBB BAB|dBB BAB|G2A BAB|GEE E2:|
|:d|gfg aga|bge dBG|gfg aga|bge e2(g/2a/2)|
bag agf |gfe dBG|ABc BAB|GEE E2:|
